X:1182
T:The Maid's last Wish.
C:John Malchair's Third Collection of Tunes
F:https://www.vwml.org/record/Malchair/3619/p118
F:www.vwml.org/topics/historic-dance-and-tune-books/Malchair
Z:Eric Conrad Feb 2020
N:NB1 Repeats added.
N:NB2 Meter changed from 6/4 to 6/8, barred identically, just faster.
W:1695. Transposed a Note lower.
M:6/8   % original 6/4 with notes of twice length below.
L:1/8
K:Bb
P:A
|: "_NB1,2"f | d2c B2A | (BF)_A G2g | f2e (dB)d | f3 F2f |
d2c B2A | (BA)_A G2e | d2c c2B | B3- B2 :|
P:B
|: F | D2E F2B | (GE)B e2d | cBA G2c | A3- A2f |
dB2 b2f | _a3 g2f | edc c2B | B3- B2 :|

